icons_vscode/folders/tests.svg

<svg viewBox="0 0 260.73 208.59" xmlns="http://www.w3.org/2000/svg"><g fill="#96ae60"><path d="m213.59 165.93-8.59-17.22h-.08l-5.48-11.07-3.77-7.64-19.83-39.69a5.54 5.54 0 0 1 -.61-2.49v-38.75h-22.15v38.75a5.54 5.54 0 0 1 -.61 2.49l-19.81 39.69-1.37 2.74-2.45 4.91-5.53 11.07-8.58 17.22a11.07 11.07 0 0 0 9.85 16h79.42a11.07 11.07 0 0 0 9.41-5.26h-.22a11.07 11.07 0 0 0 .4-10.75zm-38.17-48.93a8.27 8.27 0 1 1 -8.27 8.27 8.27 8.27 0 0 1 8.27-8.27zm24.83 59.09c-8.63.2-30.56.08-38.6 0-6.66.05-25 .18-33.6 0-10.67-.25-5.46-10.67-5.46-10.67l23.57-47.38h19.36a12.32 12.32 0 1 0 21.68 10.17l18.51 37.21s5.21 10.47-5.46 10.71z"/><path d="m234.66 20.91h-104.29c.74 0-25.8-20.91-26.07-20.91h-78.23a26 26 0 0 0 -25.94 26.07l-.13 156.44a26.06 26.06 0 0 0 26.07 26.07h208.59a26.06 26.06 0 0 0 26.07-26.07v-135.51a26.07 26.07 0 0 0 -26.07-26.09zm-30.92 172.09h-79.16a22.14 22.14 0 0 1 -19.76-32.05l37.18-74.46v-37.42h-5.54v-11.07h55.36v11.07h-5.52v37.42l37.2 74.46a22.14 22.14 0 0 1 -19.76 32.05z"/></g></svg>

<svg xmlns="http://www.w3.org/2000/svg" viewBox="0 0 260.73 208.59"><g fill="#96ae60"><path d="M213.59 165.93 205 148.71h-.08l-5.48-11.07-3.77-7.64-19.83-39.69a5.54 5.54 0 0 1-.61-2.49V49.07h-22.15v38.75a5.54 5.54 0 0 1-.61 2.49L132.66 130l-1.37 2.74-2.45 4.91-5.53 11.07-8.58 17.22a11.07 11.07 0 0 0 9.85 16H204a11.07 11.07 0 0 0 9.41-5.26h-.22a11.07 11.07 0 0 0 .4-10.75M175.42 117a8.27 8.27 0 1 1-8.27 8.27 8.27 8.27 0 0 1 8.27-8.27m24.83 59.09c-8.63.2-30.56.08-38.6 0-6.66.05-25 .18-33.6 0-10.67-.25-5.46-10.67-5.46-10.67l23.57-47.38h19.36a12.32 12.32 0 1 0 21.68 10.17l18.51 37.21s5.21 10.47-5.46 10.71z"/><path d="M234.66 20.91H130.37c.74 0-25.8-20.91-26.07-20.91H26.07A26 26 0 0 0 .13 26.07L0 182.51a26.06 26.06 0 0 0 26.07 26.07h208.59a26.06 26.06 0 0 0 26.07-26.07V47a26.07 26.07 0 0 0-26.07-26.09M203.74 193h-79.16a22.14 22.14 0 0 1-19.76-32.05L142 86.49V49.07h-5.54V38h55.36v11.07h-5.52v37.42l37.2 74.46A22.14 22.14 0 0 1 203.74 193"/></g></svg>
